img/skills/herramientas/illustrator.svg

<svg xmlns="http://www.w3.org/2000/svg" x="0px" y="0px" width="100" height="100" viewBox="0 0 30 30">
    <path d="M 6 4 C 4.895 4 4 4.895 4 6 L 4 24 C 4 25.105 4.895 26 6 26 L 24 26 C 25.105 26 26 25.105 26 24 L 26 6 C 26 4.895 25.105 4 24 4 L 6 4 z M 19.660156 9.2480469 C 20.282156 9.2480469 20.707031 9.6445469 20.707031 10.185547 C 20.707031 10.726547 20.282156 11.123047 19.660156 11.123047 C 19.045156 11.123047 18.615234 10.726547 18.615234 10.185547 C 18.615234 9.6445469 19.045156 9.2480469 19.660156 9.2480469 z M 11.792969 9.953125 L 13.775391 9.953125 L 17.28125 19.818359 L 15.388672 19.818359 L 14.554688 17.296875 L 10.925781 17.296875 L 10.076172 19.818359 L 8.2929688 19.818359 L 11.792969 9.953125 z M 12.6875 11.832031 L 11.335938 15.900391 L 14.144531 15.900391 L 12.804688 11.832031 L 12.6875 11.832031 z M 18.820312 12.339844 L 20.507812 12.339844 L 20.507812 19.818359 L 18.820312 19.818359 L 18.820312 12.339844 z"></path>
</svg>

<svg xmlns="http://www.w3.org/2000/svg" x="0px" y="0px" width="100" height="100" viewBox="0,0,256,256">
<g fill="#330000" fill-rule="nonzero" stroke="none" stroke-width="1" stroke-linecap="butt" stroke-linejoin="miter" stroke-miterlimit="10" stroke-dasharray="" stroke-dashoffset="0" font-family="none" font-weight="none" font-size="none" text-anchor="none" style="mix-blend-mode: normal"><g transform="scale(8.53333,8.53333)"><path d="M6,4c-1.105,0 -2,0.895 -2,2v18c0,1.105 0.895,2 2,2h18c1.105,0 2,-0.895 2,-2v-18c0,-1.105 -0.895,-2 -2,-2zM19.66016,9.24805c0.622,0 1.04688,0.3965 1.04688,0.9375c0,0.541 -0.42488,0.9375 -1.04687,0.9375c-0.615,0 -1.04492,-0.3965 -1.04492,-0.9375c0,-0.541 0.42992,-0.9375 1.04492,-0.9375zM11.79297,9.95313h1.98242l3.50586,9.86523h-1.89258l-0.83398,-2.52148h-3.62891l-0.84961,2.52148h-1.7832zM12.6875,11.83203l-1.35156,4.06836h2.80859l-1.33984,-4.06836zM18.82031,12.33984h1.6875v7.47852h-1.6875z"></path></g></g>
</svg>
